src/assets/TwitterLogo.svg

<svg width="24" height="24" viewBox="0 0 24 24" fill="none" xmlns="http://www.w3.org/2000/svg">
<path d="M23.1928 6.46314C23.1361 6.32608 23.04 6.20893 22.9166 6.12649C22.7933 6.04406 22.6483 6.00004 22.5 6.00001H19.6472C19.2483 5.32143 18.6807 4.7576 17.9994 4.36333C17.3181 3.96906 16.5465 3.75778 15.7594 3.75001C15.173 3.74232 14.591 3.85199 14.0476 4.07256C13.5042 4.29313 13.0104 4.62015 12.5953 5.03439C12.1681 5.45366 11.829 5.95412 11.5979 6.50634C11.3669 7.05857 11.2486 7.65141 11.25 8.25001V8.82095C7.47562 7.82532 4.38844 4.75501 4.35562 4.7222C4.255 4.62069 4.12747 4.55004 3.98805 4.51858C3.84862 4.48712 3.70311 4.49615 3.56865 4.54462C3.43419 4.59309 3.31637 4.67896 3.22908 4.79214C3.14179 4.90532 3.08866 5.04109 3.07594 5.18345C2.67187 9.66376 3.97312 12.6619 5.13844 14.3878C5.70663 15.241 6.39786 16.0056 7.18969 16.6566C5.76187 18.3 3.51375 19.1634 3.48937 19.1728C3.38354 19.2125 3.28804 19.2755 3.21 19.3572C3.13195 19.439 3.07339 19.5373 3.03868 19.6448C3.00397 19.7524 2.99402 19.8664 3.00956 19.9783C3.0251 20.0903 3.06574 20.1972 3.12844 20.2913C3.19875 20.3963 3.48 20.7647 4.16719 21.1088C5.01656 21.5344 6.13875 21.75 7.5 21.75C14.1253 21.75 19.6612 16.6481 20.2266 10.0838L23.0306 7.28064C23.1355 7.17569 23.2069 7.04201 23.2357 6.89649C23.2646 6.75097 23.2497 6.60016 23.1928 6.46314ZM18.9741 9.22032C18.8455 9.34922 18.7682 9.5205 18.7566 9.7022C18.375 15.6169 13.4325 20.25 7.5 20.25C6.51 20.25 5.8125 20.1188 5.32312 19.9613C6.40219 19.3753 7.90687 18.3675 8.87437 16.9163C8.93116 16.8309 8.96985 16.7349 8.98806 16.634C9.00626 16.5331 9.0036 16.4296 8.98023 16.3298C8.95686 16.23 8.91328 16.136 8.85218 16.0537C8.79109 15.9714 8.71377 15.9025 8.625 15.8513C8.58094 15.8259 4.50844 13.3819 4.5 6.85126C6 8.07001 8.74219 9.96095 11.8753 10.4878C11.9827 10.5059 12.0927 10.5004 12.1978 10.4717C12.3028 10.443 12.4003 10.3918 12.4836 10.3215C12.5668 10.2513 12.6338 10.1638 12.6798 10.0651C12.7258 9.96644 12.7497 9.85891 12.75 9.75001V8.25001C12.7492 7.84993 12.8283 7.45373 12.9829 7.08471C13.1375 6.71569 13.3643 6.38132 13.65 6.10126C13.9239 5.82685 14.25 5.61014 14.6091 5.46393C14.9682 5.31772 15.3529 5.24498 15.7406 5.25001C16.9275 5.26501 18.0366 5.98876 18.5006 7.05095C18.5591 7.18449 18.6553 7.29809 18.7773 7.37785C18.8994 7.4576 19.042 7.50005 19.1878 7.50001H20.6878L18.9741 9.22032Z" fill="#100F0F"/>
</svg>

<svg xmlns="http://www.w3.org/2000/svg" width="24" height="24" fill="none"><path fill="#100F0F" d="M23.193 6.463A.75.75 0 0 0 22.5 6h-2.853a4.562 4.562 0 0 0-3.888-2.25 4.398 4.398 0 0 0-3.164 1.284A4.492 4.492 0 0 0 11.25 8.25v.57c-3.774-.995-6.862-4.065-6.894-4.098a.75.75 0 0 0-1.28.461c-.404 4.48.897 7.479 2.062 9.205a10.4 10.4 0 0 0 2.052 2.269c-1.428 1.643-3.676 2.506-3.7 2.516a.751.751 0 0 0-.362 1.118c.07.105.352.474 1.04.818.849.425 1.97.641 3.332.641 6.625 0 12.161-5.102 12.727-11.666L23.03 7.28a.75.75 0 0 0 .162-.818ZM18.974 9.22a.75.75 0 0 0-.217.482C18.375 15.617 13.432 20.25 7.5 20.25c-.99 0-1.688-.131-2.177-.289 1.08-.586 2.584-1.593 3.551-3.045a.75.75 0 0 0-.249-1.065c-.044-.025-4.117-2.47-4.125-9 1.5 1.219 4.242 3.11 7.375 3.637a.75.75 0 0 0 .875-.738v-1.5a3 3 0 0 1 .9-2.149 2.9 2.9 0 0 1 2.09-.851c1.187.015 2.297.739 2.76 1.801a.75.75 0 0 0 .688.449h1.5l-1.714 1.72Z"/></svg>
